svg/24/diamond--filled.svg

<svg width="24" height="24" viewBox="0 0 24 24" fill="currentColor" xmlns="http://www.w3.org/2000/svg"><path d="M10.5858 2.41422C11.3668 1.63317 12.6332 1.63317 13.4142 2.41422L21.5858 10.5858C22.3668 11.3668 22.3668 12.6332 21.5858 13.4142L13.4142 21.5858C12.6332 22.3668 11.3668 22.3668 10.5858 21.5858L2.41422 13.4142C1.63317 12.6332 1.63317 11.3668 2.41422 10.5858L10.5858 2.41422Z"/></svg>

<svg xmlns="http://www.w3.org/2000/svg" width="24" height="24" fill="currentColor" viewBox="0 0 24 24">
  <path d="M10.586 2.414a2 2 0 0 1 2.828 0l8.172 8.172a2 2 0 0 1 0 2.828l-8.172 8.172a2 2 0 0 1-2.828 0l-8.172-8.172a2 2 0 0 1 0-2.828l8.172-8.172Z"/>
</svg>
